X: 34759
T: Road To Maugheraboy, The
R: jig
M: 6/8
K: Dmajor
A|d2A d2A|BAF ~A3|dfe dBA|BAF ~E3|
d2e d2A|BAF ~A3|ABB dAF|~E3 DFA|
~d2A ~d2A|BAF ~A3|dfe dBA|BAF EFG|
AdA dAd|BAF ~A3|ABB dAF|~E3 DAG||
|:(3EFG A BAG|AGF FED|(3EFG A BAG|
Bce d3|FGA ABd|~A2G FED|
[1 ABB dAF|~E3 DAG:|2 ~B3 dAF|EFG ABc||

